documentation/public/assets/images/input-field.svg

<svg width="196" height="95" viewBox="0 0 196 95" fill="none" xmlns="http://www.w3.org/2000/svg">
<rect x="0.5" y="28.5" width="195" height="39" rx="3.5" fill="white"/>
<path d="M12.7727 43.6136V42.3636H21.5V43.6136H17.8409V54H16.4318V43.6136H12.7727ZM25.8864 54.1818C25.0455 54.1818 24.3201 53.9962 23.7102 53.625C23.1042 53.25 22.6364 52.7273 22.3068 52.0568C21.9811 51.3826 21.8182 50.5985 21.8182 49.7045C21.8182 48.8106 21.9811 48.0227 22.3068 47.3409C22.6364 46.6553 23.0947 46.1212 23.6818 45.7386C24.2727 45.3523 24.9621 45.1591 25.75 45.1591C26.2045 45.1591 26.6534 45.2348 27.0966 45.3864C27.5398 45.5379 27.9432 45.7841 28.3068 46.125C28.6705 46.4621 28.9602 46.9091 29.1761 47.4659C29.392 48.0227 29.5 48.7083 29.5 49.5227V50.0909H22.7727V48.9318H28.1364C28.1364 48.4394 28.0379 48 27.8409 47.6136C27.6477 47.2273 27.3712 46.9223 27.0114 46.6989C26.6553 46.4754 26.2348 46.3636 25.75 46.3636C25.2159 46.3636 24.7538 46.4962 24.3636 46.7614C23.9773 47.0227 23.6799 47.3636 23.4716 47.7841C23.2633 48.2045 23.1591 48.6553 23.1591 49.1364V49.9091C23.1591 50.5682 23.2727 51.1269 23.5 51.5852C23.7311 52.0398 24.0511 52.3864 24.4602 52.625C24.8693 52.8598 25.3447 52.9773 25.8864 52.9773C26.2386 52.9773 26.5568 52.928 26.8409 52.8295C27.1288 52.7273 27.3769 52.5758 27.5852 52.375C27.7936 52.1705 27.9545 51.9167 28.0682 51.6136L29.3636 51.9773C29.2273 52.4167 28.9981 52.803 28.6761 53.1364C28.3542 53.4659 27.9564 53.7235 27.483 53.9091C27.0095 54.0909 26.4773 54.1818 25.8864 54.1818ZM32.3054 45.2727L34.3963 48.8409L36.4872 45.2727H38.0327L35.2145 49.6364L38.0327 54H36.4872L34.3963 50.6136L32.3054 54H30.7599L33.5327 49.6364L30.7599 45.2727H32.3054ZM43.7415 45.2727V46.4091H39.2188V45.2727H43.7415ZM40.5369 43.1818H41.8778V51.5C41.8778 51.8788 41.9328 52.1629 42.0426 52.3523C42.1563 52.5379 42.3002 52.6629 42.4744 52.7273C42.6525 52.7879 42.84 52.8182 43.0369 52.8182C43.1847 52.8182 43.3059 52.8106 43.4006 52.7955C43.4953 52.7765 43.571 52.7614 43.6278 52.75L43.9006 53.9545C43.8097 53.9886 43.6828 54.0227 43.5199 54.0568C43.357 54.0947 43.1506 54.1136 42.9006 54.1136C42.5218 54.1136 42.1506 54.0322 41.7869 53.8693C41.4271 53.7064 41.1278 53.4583 40.8892 53.125C40.6544 52.7917 40.5369 52.3712 40.5369 51.8636V43.1818Z" fill="#1F1F1F"/>
<rect x="0.5" y="28.5" width="195" height="39" rx="3.5" stroke="#545454"/>
<path d="M1.00426 16V5.81818H2.84872V14.4538H7.3331V16H1.00426ZM11.0518 16.1541C10.5679 16.1541 10.1321 16.0679 9.74432 15.8956C9.35985 15.7199 9.05492 15.4614 8.82955 15.12C8.60748 14.7786 8.49645 14.3577 8.49645 13.8572C8.49645 13.4264 8.57599 13.0701 8.73509 12.7884C8.89418 12.5066 9.11127 12.2812 9.38636 12.1122C9.66146 11.9432 9.97135 11.8156 10.3161 11.7294C10.6641 11.6399 11.0237 11.5753 11.3949 11.5355C11.8423 11.4891 12.2053 11.4477 12.4837 11.4112C12.7621 11.3714 12.9643 11.3118 13.0902 11.2322C13.2195 11.1494 13.2841 11.0218 13.2841 10.8494V10.8196C13.2841 10.4451 13.1731 10.1551 12.951 9.94957C12.7289 9.74408 12.4091 9.64134 11.9915 9.64134C11.5507 9.64134 11.201 9.73745 10.9425 9.92969C10.6873 10.1219 10.5149 10.349 10.4254 10.6108L8.74503 10.3722C8.8776 9.90814 9.09635 9.52036 9.40128 9.20881C9.7062 8.89394 10.0791 8.65862 10.5199 8.50284C10.9607 8.34375 11.4479 8.2642 11.9815 8.2642C12.3494 8.2642 12.7157 8.30729 13.0803 8.39347C13.4448 8.47964 13.7779 8.62216 14.0795 8.82102C14.3812 9.01657 14.6231 9.28338 14.8054 9.62145C14.991 9.95952 15.0838 10.3821 15.0838 10.8892V16H13.3537V14.951H13.294C13.1847 15.1631 13.0305 15.362 12.8317 15.5476C12.6361 15.7299 12.3892 15.8774 12.0909 15.9901C11.7959 16.0994 11.4496 16.1541 11.0518 16.1541ZM11.5192 14.8317C11.8804 14.8317 12.1937 14.7604 12.4588 14.6179C12.724 14.4721 12.9278 14.2798 13.0703 14.0412C13.2161 13.8026 13.2891 13.5424 13.2891 13.2607V12.3608C13.2327 12.4072 13.1366 12.4503 13.0007 12.4901C12.8681 12.5298 12.719 12.5646 12.5533 12.5945C12.3875 12.6243 12.2235 12.6508 12.0611 12.674C11.8987 12.6972 11.7578 12.7171 11.6385 12.7337C11.37 12.7701 11.1297 12.8298 10.9176 12.9126C10.7055 12.9955 10.5381 13.1115 10.4155 13.2607C10.2929 13.4065 10.2315 13.5954 10.2315 13.8274C10.2315 14.1589 10.3525 14.4091 10.5945 14.5781C10.8364 14.7472 11.1446 14.8317 11.5192 14.8317ZM16.973 16V5.81818H18.7727V9.62642H18.8473C18.9401 9.44081 19.071 9.24361 19.2401 9.0348C19.4091 8.82268 19.6378 8.64205 19.9261 8.4929C20.2145 8.34044 20.5824 8.2642 21.0298 8.2642C21.6198 8.2642 22.1518 8.41501 22.6257 8.71662C23.103 9.01491 23.4808 9.45739 23.7592 10.044C24.041 10.6274 24.1818 11.3433 24.1818 12.1918C24.1818 13.0303 24.0443 13.7429 23.7692 14.3295C23.4941 14.9162 23.1196 15.3636 22.6456 15.6719C22.1716 15.9801 21.6347 16.1342 21.0348 16.1342C20.5973 16.1342 20.2344 16.0613 19.946 15.9155C19.6577 15.7696 19.4257 15.594 19.25 15.3885C19.0777 15.1797 18.9434 14.9825 18.8473 14.7969H18.7429V16H16.973ZM18.7379 12.1818C18.7379 12.6757 18.8075 13.1082 18.9467 13.4794C19.0893 13.8506 19.2931 14.1406 19.5582 14.3494C19.8267 14.5549 20.1515 14.6577 20.5327 14.6577C20.9304 14.6577 21.2635 14.5516 21.532 14.3395C21.8004 14.1241 22.0026 13.8307 22.1385 13.4595C22.2777 13.085 22.3473 12.6591 22.3473 12.1818C22.3473 11.7079 22.2794 11.2869 22.1435 10.919C22.0076 10.5511 21.8054 10.2628 21.5369 10.054C21.2685 9.84517 20.9337 9.74077 20.5327 9.74077C20.1482 9.74077 19.8217 9.84186 19.5533 10.044C19.2848 10.2462 19.081 10.5296 18.9418 10.8942C18.8059 11.2588 18.7379 11.688 18.7379 12.1818ZM29.0925 16.1491C28.3269 16.1491 27.6657 15.9901 27.1088 15.6719C26.5553 15.3504 26.1294 14.8963 25.8311 14.3097C25.5328 13.7197 25.3837 13.0253 25.3837 12.2266C25.3837 11.4411 25.5328 10.7517 25.8311 10.1584C26.1328 9.56179 26.5537 9.09777 27.0939 8.76633C27.6342 8.43158 28.2689 8.2642 28.998 8.2642C29.4687 8.2642 29.9128 8.34044 30.3304 8.4929C30.7514 8.64205 31.1226 8.87405 31.4441 9.18892C31.7689 9.50379 32.0241 9.90483 32.2097 10.392C32.3953 10.8759 32.4881 11.4527 32.4881 12.1222V12.674H26.2289V11.4609H30.763C30.7596 11.1162 30.6851 10.8097 30.5392 10.5412C30.3934 10.2694 30.1896 10.0556 29.9277 9.89986C29.6692 9.74408 29.3676 9.66619 29.0229 9.66619C28.655 9.66619 28.3319 9.75568 28.0534 9.93466C27.775 10.1103 27.5579 10.3423 27.4022 10.6307C27.2497 10.9157 27.1718 11.2289 27.1685 11.5703V12.6293C27.1685 13.0734 27.2497 13.4545 27.4121 13.7727C27.5745 14.0876 27.8016 14.3295 28.0932 14.4986C28.3849 14.6643 28.7263 14.7472 29.1174 14.7472C29.3792 14.7472 29.6162 14.7107 29.8283 14.6378C30.0404 14.5616 30.2244 14.4505 30.3801 14.3047C30.5359 14.1589 30.6536 13.9782 30.7331 13.7628L32.4135 13.9517C32.3075 14.3958 32.1053 14.7836 31.807 15.1151C31.512 15.4432 31.1342 15.6984 30.6735 15.8807C30.2128 16.0597 29.6858 16.1491 29.0925 16.1491ZM35.8104 5.81818V16H34.0107V5.81818H35.8104ZM47.1692 10.3821L45.5286 10.5611C45.4822 10.3954 45.401 10.2396 45.285 10.0938C45.1723 9.94792 45.0198 9.83026 44.8276 9.74077C44.6354 9.65128 44.4 9.60653 44.1216 9.60653C43.7471 9.60653 43.4322 9.68774 43.177 9.85014C42.9251 10.0125 42.8008 10.223 42.8042 10.4815C42.8008 10.7036 42.882 10.8842 43.0478 11.0234C43.2168 11.1626 43.4952 11.277 43.883 11.3665L45.1855 11.6449C45.9081 11.8007 46.445 12.0476 46.7963 12.3857C47.151 12.7237 47.33 13.1662 47.3333 13.7131C47.33 14.1937 47.1891 14.6179 46.9107 14.9858C46.6356 15.3504 46.2528 15.6354 45.7623 15.8409C45.2717 16.0464 44.7083 16.1491 44.0719 16.1491C43.1373 16.1491 42.3849 15.9536 41.8148 15.5625C41.2447 15.1681 40.905 14.6196 40.7956 13.9169L42.5506 13.7479C42.6301 14.0926 42.7992 14.3527 43.0577 14.5284C43.3162 14.7041 43.6526 14.7919 44.0669 14.7919C44.4945 14.7919 44.8375 14.7041 45.0961 14.5284C45.3579 14.3527 45.4888 14.1357 45.4888 13.8771C45.4888 13.6584 45.4043 13.4777 45.2353 13.3352C45.0695 13.1927 44.811 13.0833 44.4597 13.0071L43.1571 12.7337C42.4247 12.5812 41.8828 12.3243 41.5314 11.9631C41.1801 11.5985 41.0061 11.1378 41.0094 10.581C41.0061 10.1103 41.1337 9.70265 41.3922 9.35795C41.6541 9.00994 42.017 8.74148 42.481 8.55256C42.9483 8.36032 43.4869 8.2642 44.0968 8.2642C44.9917 8.2642 45.696 8.45478 46.2097 8.83594C46.7267 9.21709 47.0466 9.73248 47.1692 10.3821ZM48.8173 16V8.36364H50.5375V9.66122H50.627C50.786 9.22372 51.0495 8.88234 51.4174 8.63707C51.7853 8.38849 52.2245 8.2642 52.7349 8.2642C53.252 8.2642 53.6878 8.39015 54.0424 8.64205C54.4004 8.89062 54.6523 9.23035 54.7981 9.66122H54.8777C55.0467 9.23698 55.3317 8.89891 55.7328 8.64702C56.1371 8.39181 56.6161 8.2642 57.1696 8.2642C57.8722 8.2642 58.4456 8.48627 58.8897 8.9304C59.3339 9.37453 59.5559 10.0225 59.5559 10.8743V16H57.7512V11.1527C57.7512 10.6787 57.6253 10.3324 57.3734 10.1136C57.1215 9.89157 56.8133 9.78054 56.4487 9.78054C56.0145 9.78054 55.6748 9.91643 55.4295 10.1882C55.1876 10.4567 55.0666 10.8063 55.0666 11.2372V16H53.3017V11.0781C53.3017 10.6837 53.1824 10.3688 52.9437 10.1335C52.7084 9.8982 52.4002 9.78054 52.019 9.78054C51.7605 9.78054 51.5252 9.84683 51.313 9.9794C51.1009 10.1087 50.9319 10.2926 50.8059 10.5312C50.68 10.7666 50.617 11.0417 50.617 11.3565V16H48.8173Z" fill="#333333"/>
</svg>

<svg width="196" height="95" fill="none" xmlns="http://www.w3.org/2000/svg"><rect x=".5" y="28.5" width="195" height="39" rx="3.5" fill="#fff"/><path d="M12.77 43.61v-1.25h8.73v1.25h-3.66V54h-1.4V43.61h-3.67ZM25.9 54.18a3.74 3.74 0 0 1-3.58-2.13 5.35 5.35 0 0 1-.5-2.35c0-.89.17-1.68.5-2.36a3.7 3.7 0 0 1 3.44-2.18 4 4 0 0 1 1.35.23 3.34 3.34 0 0 1 2.08 2.08c.21.55.32 1.24.32 2.05v.57h-6.73v-1.16h5.37c0-.5-.1-.93-.3-1.32a2.23 2.23 0 0 0-2.09-1.25 2.47 2.47 0 0 0-2.28 1.42 3 3 0 0 0-.31 1.36v.77c0 .66.11 1.22.34 1.68.23.45.55.8.96 1.03.4.24.88.36 1.43.36.35 0 .67-.05.95-.15.29-.1.54-.25.75-.45.2-.21.36-.46.48-.77l1.3.37a2.9 2.9 0 0 1-.7 1.16c-.32.33-.71.58-1.19.77-.47.18-1 .27-1.6.27Zm6.42-8.9 2.09 3.56 2.09-3.57h1.54l-2.82 4.37L38.03 54H36.5l-2.1-3.39L32.32 54h-1.55l2.77-4.36-2.77-4.37h1.55Zm11.43 0v1.13h-4.52v-1.14h4.52Zm-3.2-2.1h1.34v8.32c0 .38.05.66.16.85.12.19.26.31.43.38.18.06.37.09.57.09.14 0 .27 0 .36-.02l.23-.05.27 1.2a2.73 2.73 0 0 1-1 .16 2.7 2.7 0 0 1-1.11-.24 2.21 2.21 0 0 1-.9-.74 2.14 2.14 0 0 1-.35-1.27v-8.68Z" fill="#1F1F1F"/><rect x=".5" y="28.5" width="195" height="39" rx="3.5" stroke="#545454"/><path d="M1 16V5.82h1.85v8.63h4.48V16H1Zm10.05.15c-.48 0-.92-.08-1.3-.25a2.13 2.13 0 0 1-.92-.78 2.27 2.27 0 0 1-.33-1.26c0-.43.08-.79.24-1.07.15-.28.37-.5.65-.68.27-.17.58-.3.93-.38.34-.09.7-.15 1.07-.2l1.1-.12c.27-.04.47-.1.6-.18.13-.08.2-.2.2-.38v-.03c0-.37-.12-.66-.34-.87-.22-.2-.54-.3-.96-.3-.44 0-.79.09-1.05.28-.25.2-.43.42-.51.68l-1.68-.24a2.68 2.68 0 0 1 1.77-1.87 4.76 4.76 0 0 1 2.56-.1c.36.08.7.22 1 .42.3.2.54.46.73.8.18.34.27.76.27 1.27V16h-1.73v-1.05h-.06A2.2 2.2 0 0 1 12.1 16c-.3.1-.64.16-1.04.16Zm.47-1.32a2 2 0 0 0 .94-.21c.26-.15.47-.34.61-.58.15-.24.22-.5.22-.78v-.9a.85.85 0 0 1-.29.13 13.87 13.87 0 0 1-1.36.24c-.27.04-.51.1-.72.18-.21.09-.38.2-.5.35a.85.85 0 0 0-.19.57c0 .33.12.58.36.75.25.17.55.25.93.25ZM16.97 16V5.82h1.8v3.8h.08c.09-.18.22-.38.39-.59.17-.2.4-.39.69-.54a2.91 2.91 0 0 1 3.83 1.55c.28.59.42 1.3.42 2.15a5 5 0 0 1-.41 2.14 2.89 2.89 0 0 1-2.73 1.8c-.44 0-.8-.07-1.1-.21a2.22 2.22 0 0 1-.69-.53 3.3 3.3 0 0 1-.4-.6h-.1V16h-1.78Zm1.77-3.82c0 .5.07.93.2 1.3.15.37.35.66.62.87.27.2.6.3.97.3.4 0 .73-.1 1-.31.27-.22.47-.5.6-.88.15-.38.22-.8.22-1.28 0-.47-.07-.9-.2-1.26a1.9 1.9 0 0 0-.61-.87c-.27-.2-.6-.3-1-.3a1.6 1.6 0 0 0-1.59 1.14c-.14.37-.21.8-.21 1.3Zm10.35 3.97c-.76 0-1.42-.16-1.98-.48a3.23 3.23 0 0 1-1.28-1.36 4.56 4.56 0 0 1-.45-2.08c0-.79.15-1.48.45-2.07A3.38 3.38 0 0 1 29 8.26c.47 0 .91.08 1.33.23a3.19 3.19 0 0 1 1.88 1.9c.19.49.28 1.06.28 1.73v.55h-6.26v-1.2h4.53c0-.35-.07-.66-.22-.93a1.63 1.63 0 0 0-.61-.64 1.72 1.72 0 0 0-.9-.23c-.38 0-.7.09-.98.26-.28.18-.5.41-.65.7a2 2 0 0 0-.23.94v1.06c0 .44.08.82.24 1.14.16.32.4.56.68.73.3.16.64.25 1.03.25.26 0 .5-.04.7-.11.22-.08.4-.19.56-.34.16-.14.27-.32.35-.54l1.68.2c-.1.44-.3.82-.6 1.16-.3.32-.68.58-1.14.76-.46.18-.98.27-1.58.27Zm6.72-10.33V16h-1.8V5.82h1.8Zm11.36 4.56-1.64.18a1.32 1.32 0 0 0-.7-.82c-.2-.09-.43-.13-.7-.13-.38 0-.7.08-.95.24-.25.16-.38.37-.38.63 0 .22.08.4.25.54.17.14.45.26.83.35l1.3.27c.73.16 1.27.4 1.62.75.35.33.53.78.53 1.32 0 .48-.14.9-.42 1.28-.27.36-.66.65-1.15.85-.49.2-1.05.3-1.69.3-.93 0-1.69-.19-2.26-.58-.57-.4-.9-.94-1.01-1.64l1.75-.17c.08.34.25.6.5.78.27.17.6.26 1.02.26.42 0 .77-.09 1.03-.26.26-.18.39-.4.39-.65a.7.7 0 0 0-.25-.54 1.77 1.77 0 0 0-.78-.33l-1.3-.28a3.1 3.1 0 0 1-1.63-.77 1.9 1.9 0 0 1-.52-1.38c0-.47.12-.88.38-1.22a2.5 2.5 0 0 1 1.1-.8 4 4 0 0 1 1.6-.3c.9 0 1.6.2 2.12.58.52.38.84.9.96 1.54ZM48.82 16V8.36h1.72v1.3h.09c.16-.44.42-.78.79-1.02.37-.25.8-.38 1.31-.38.52 0 .96.13 1.31.38a2 2 0 0 1 .76 1.02h.08c.17-.42.45-.76.85-1.01.4-.26.89-.39 1.44-.39.7 0 1.28.23 1.72.67.44.44.67 1.1.67 1.94V16h-1.8v-4.85c0-.47-.13-.82-.39-1.04a1.35 1.35 0 0 0-.92-.33c-.44 0-.78.14-1.02.4a1.5 1.5 0 0 0-.36 1.06V16H53.3v-4.92c0-.4-.12-.71-.36-.95a1.25 1.25 0 0 0-.92-.35c-.26 0-.5.07-.7.2a1.3 1.3 0 0 0-.51.55c-.13.24-.2.51-.2.83V16h-1.8Z" fill="#333"/></svg>
